(Exported by FreeCAD)
(Post Processor: linuxcnc_post)
(Output Time:2019-12-03 12:42:24.753200)
(begin preamble)
G17 G54 G40 G49 G80 G90
G21
(begin operation: T1: 6mm end mill)
(machine: not set, mm/min)
(T1: 6mm end mill)
M6 T1
M3 S0
(finish operation: T1: 6mm end mill)
(begin operation: Profile_Faces)
(machine: not set, mm/min)
(Profile_Faces)
(Compensated Tool Path. Diameter: 6.0)
G0 Z30.000
G0 X393.249 Y1725.533 Z5.000
G0 Z30.000
G1 X393.249 Y1725.533 Z-1.000
G1 X492.972 Y400.237 Z-1.000
G2 X492.890 Y399.284 Z-1.000 I-2.992 J-0.225
G1 X392.824 Y-0.721 Z-1.000
G2 X389.914 Y-2.993 Z-1.000 I-2.910 J0.728
G1 X100.086 Y-2.993 Z-1.000
G2 X97.176 Y-0.721 Z-1.000 I0.000 J3.000
G1 X-2.910 Y399.272 Z-1.000
G2 X-2.992 Y400.225 Z-1.000 I2.910 J0.728
G1 X97.022 Y1730.262 Z-1.000
G2 X100.014 Y1733.037 Z-1.000 I2.992 J-0.225
G1 X389.902 Y1733.037 Z-1.000
G2 X392.893 Y1730.262 Z-1.000 I0.000 J-3.000
G1 X393.249 Y1725.533 Z-1.000
G1 X393.249 Y1725.533 Z-3.000
G1 X492.972 Y400.237 Z-3.000
G2 X492.890 Y399.284 Z-3.000 I-2.992 J-0.225
G1 X392.824 Y-0.721 Z-3.000
G2 X389.914 Y-2.993 Z-3.000 I-2.910 J0.728
G1 X100.086 Y-2.993 Z-3.000
G2 X97.176 Y-0.721 Z-3.000 I0.000 J3.000
G1 X-2.910 Y399.272 Z-3.000
G2 X-2.992 Y400.225 Z-3.000 I2.910 J0.728
G1 X97.022 Y1730.262 Z-3.000
G2 X100.014 Y1733.037 Z-3.000 I2.992 J-0.225
G1 X389.902 Y1733.037 Z-3.000
G2 X392.893 Y1730.262 Z-3.000 I0.000 J-3.000
G1 X393.249 Y1725.533 Z-3.000
G1 X393.249 Y1725.533 Z-5.000
G1 X492.972 Y400.237 Z-5.000
G2 X492.890 Y399.284 Z-5.000 I-2.992 J-0.225
G1 X392.824 Y-0.721 Z-5.000
G2 X389.914 Y-2.993 Z-5.000 I-2.910 J0.728
G1 X100.086 Y-2.993 Z-5.000
G2 X97.176 Y-0.721 Z-5.000 I0.000 J3.000
G1 X-2.910 Y399.272 Z-5.000
G2 X-2.992 Y400.225 Z-5.000 I2.910 J0.728
G1 X97.022 Y1730.262 Z-5.000
G2 X100.014 Y1733.037 Z-5.000 I2.992 J-0.225
G1 X389.902 Y1733.037 Z-5.000
G2 X392.893 Y1730.262 Z-5.000 I0.000 J-3.000
G1 X393.249 Y1725.533 Z-5.000
G1 X393.249 Y1725.533 Z-7.000
G1 X492.972 Y400.237 Z-7.000
G2 X492.890 Y399.284 Z-7.000 I-2.992 J-0.225
G1 X392.824 Y-0.721 Z-7.000
G2 X389.914 Y-2.993 Z-7.000 I-2.910 J0.728
G1 X100.086 Y-2.993 Z-7.000
G2 X97.176 Y-0.721 Z-7.000 I0.000 J3.000
G1 X-2.910 Y399.272 Z-7.000
G2 X-2.992 Y400.225 Z-7.000 I2.910 J0.728
G1 X97.022 Y1730.262 Z-7.000
G2 X100.014 Y1733.037 Z-7.000 I2.992 J-0.225
G1 X389.902 Y1733.037 Z-7.000
G2 X392.893 Y1730.262 Z-7.000 I0.000 J-3.000
G1 X393.249 Y1725.533 Z-7.000
G1 X393.249 Y1725.533 Z-8.000
G1 X492.972 Y400.237 Z-8.000
G2 X492.890 Y399.284 Z-8.000 I-2.992 J-0.225
G1 X392.824 Y-0.721 Z-8.000
G2 X389.914 Y-2.993 Z-8.000 I-2.910 J0.728
G1 X100.086 Y-2.993 Z-8.000
G2 X97.176 Y-0.721 Z-8.000 I0.000 J3.000
G1 X-2.910 Y399.272 Z-8.000
G2 X-2.992 Y400.225 Z-8.000 I2.910 J0.728
G1 X97.022 Y1730.262 Z-8.000
G2 X100.014 Y1733.037 Z-8.000 I2.992 J-0.225
G1 X389.902 Y1733.037 Z-8.000
G2 X392.893 Y1730.262 Z-8.000 I0.000 J-3.000
G1 X393.249 Y1725.533 Z-8.000
G0 Z5.000
(finish operation: Profile_Faces)
(begin postamble)
M05
G17 G54 G90 G80 G40
M2
